paymentMethods/sepaDirectDebit.svg

<svg width="128" height="64" viewBox="0 0 128 64" fill="none" xmlns="http://www.w3.org/2000/svg">
<rect width="128" height="64" rx="6" fill="white"/>
<path d="M66.4235 35.3968C64.596 35.4205 62.7914 34.9888 61.1725 34.1406L61.6693 30.8809C63.0996 31.6763 64.7062 32.1012 66.3427 32.117C68.1846 32.117 68.9965 31.4424 68.9965 30.2751C68.9965 27.6213 61.2412 28.7442 61.2412 23.1054C61.2412 20.2497 63.083 17.9352 67.3525 17.9352C68.9685 17.932 70.5711 18.2292 72.0784 18.8117L71.6058 22.0027C70.2942 21.5584 68.9227 21.316 67.5383 21.2837C65.45 21.2837 64.8845 22.0027 64.8845 22.8994C64.8845 25.5249 72.6399 24.3131 72.6399 30.0206C72.652 33.353 70.3375 35.3968 66.4235 35.3968Z" fill="#005DA0"/>
<path d="M87.266 31.7818V35.0859H75.8026V18.2261H87.266V21.5746H79.5914V24.9272H85.8118V27.9364H79.5995V31.7818H87.266Z" fill="#005DA0"/>
<path d="M96.6653 29.5844H94.4154V35.0859H90.6185V18.2261H96.6774C101.351 18.2261 103.261 20.072 103.261 24.0022C103.249 27.5648 101.363 29.5844 96.6653 29.5844ZM96.6653 21.3807H94.4154V26.551H96.6653C98.5314 26.551 99.3393 26.0784 99.3393 23.9658C99.3393 21.9462 98.6203 21.3969 96.6653 21.3969V21.3807Z" fill="#005DA0"/>
<path d="M114.83 31.802H108.714L107.773 35.0859H103.77L109.591 18.2261H114.111L120 35.0859H115.775L114.83 31.802ZM111.324 22.855L109.643 28.6352H113.933L112.317 22.855L111.861 21.102H111.796L111.324 22.855Z" fill="#005DA0"/>
<path d="M66.27 46.024L66.2255 47.6114H61.2694V39.7834H63.0426V46.024H66.27Z" fill="#005DA0"/>
<path d="M71.0081 47.0055H70.9758C70.7589 47.2444 70.4917 47.4321 70.1934 47.5551C69.8951 47.678 69.5732 47.7331 69.251 47.7164C68.0393 47.7164 67.292 47.0378 67.292 45.616C67.292 44.4487 68.0998 43.6449 69.5459 43.6449C69.9566 43.641 70.3654 43.701 70.7577 43.8226V43.455C70.7577 42.8209 70.4264 42.526 69.5459 42.526C68.9472 42.5134 68.353 42.632 67.805 42.8734L67.6676 41.5768C68.3577 41.2982 69.0967 41.1609 69.8408 41.1729C71.7069 41.1729 72.3572 41.9807 72.3572 43.7095V47.6235H71.1131L71.0081 47.0055ZM70.7657 44.897C70.4777 44.7971 70.1738 44.7506 69.869 44.7597C69.15 44.7597 68.8148 45.0424 68.8148 45.5958C68.8148 46.2138 69.1824 46.4319 69.7155 46.4319C70.2487 46.4319 70.7657 46.0967 70.7657 45.6887V44.897Z" fill="#005DA0"/>
<path d="M75.8713 47.7367C75.1838 47.7578 74.502 47.6064 73.888 47.2964L74.0577 45.9635C74.6153 46.2544 75.2343 46.4081 75.8632 46.4118C76.5095 46.4118 76.7801 46.1493 76.7801 45.7736C76.7801 44.7598 73.8477 45.3455 73.8477 43.132C73.8477 41.9969 74.6192 41.181 76.247 41.181C76.8625 41.1796 77.4727 41.2962 78.0444 41.5244L77.9071 42.8492C77.3676 42.6432 76.7961 42.5338 76.2187 42.5261C75.6855 42.5261 75.3906 42.7361 75.3906 43.0593C75.3906 44.0206 78.2827 43.4632 78.2827 45.6282C78.2827 46.8885 77.5839 47.7367 75.8713 47.7367Z" fill="#005DA0"/>
<path d="M81.4656 42.5101V45.7414C81.4656 46.2302 81.7161 46.4402 82.221 46.4402C82.3906 46.4404 82.5593 46.4159 82.7218 46.3675L82.8147 47.547C82.4661 47.6706 82.0981 47.7308 81.7282 47.7247C80.4639 47.7247 79.8499 46.9936 79.8499 45.794V42.5101H79.139V41.2983H79.9227L80.1933 39.8684L81.4656 39.7553V41.2983H82.8753V42.5101H81.4656Z" fill="#005DA0"/>
<path d="M86.0098 47.7367C85.3223 47.7578 84.6405 47.6064 84.0265 47.2964L84.1921 45.9635C84.7497 46.2544 85.3687 46.4081 85.9976 46.4118C86.6439 46.4118 86.9145 46.1493 86.9145 45.7736C86.9145 44.7598 83.9821 45.3455 83.9821 43.132C83.9821 41.9969 84.7535 41.181 86.3854 41.181C86.9996 41.1808 87.6082 41.2973 88.1788 41.5243L88.0455 42.8492C87.5046 42.6435 86.9318 42.5341 86.3531 42.5261C85.8199 42.5261 85.5452 42.7361 85.5452 43.0593C85.5452 44.0206 88.4373 43.4632 88.4373 45.6282C88.4171 46.8885 87.7184 47.7367 86.0098 47.7367Z" fill="#005DA0"/>
<path d="M93.9105 42.829C93.5656 42.7047 93.2026 42.6378 92.836 42.6311C91.6566 42.6311 91.2688 43.1239 91.2688 44.4568C91.2688 45.7898 91.8222 46.3472 92.8037 46.3472C93.1991 46.3503 93.5905 46.2676 93.9509 46.1048L94.064 47.3691C93.5683 47.6347 93.0101 47.7617 92.4483 47.7367C90.5821 47.7367 89.5885 46.6703 89.5885 44.4568C89.5885 42.3605 90.4569 41.181 92.4806 41.181C93.0001 41.1815 93.5155 41.2731 94.0034 41.4516L93.9105 42.829Z" fill="#005DA0"/>
<path d="M99.2423 47.6114V43.5721C99.2733 43.3418 99.2116 43.1086 99.0707 42.9238C98.9298 42.739 98.7213 42.6177 98.491 42.5866C98.4053 42.5745 98.3182 42.5745 98.2325 42.5866C98.0288 42.5809 97.8265 42.6211 97.6405 42.7044C97.4545 42.7876 97.2896 42.9116 97.1581 43.0672V47.6114H95.5424V39.4885L97.1581 39.4077V40.8456L97.1217 41.702H97.154C97.5987 41.3411 98.1568 41.1493 98.7293 41.1607C100.066 41.1607 100.85 42.0574 100.85 43.5843V47.6235L99.2423 47.6114Z" fill="#005DA0"/>
<path d="M102.563 47.6115V41.3264L103.859 41.2658L104.005 42.3201H104.033C104.181 41.9832 104.423 41.6965 104.731 41.4944C105.038 41.2922 105.398 41.1834 105.766 41.181C105.999 41.1776 106.232 41.2089 106.456 41.2739L106.351 42.8896C106.129 42.8203 105.898 42.7849 105.665 42.7846C104.817 42.7846 104.19 43.3986 104.19 44.4528V47.6276L102.563 47.6115Z" fill="#005DA0"/>
<path d="M108.836 40.6073C108.209 40.6073 107.906 40.4296 107.906 39.9166C107.906 39.4683 108.209 39.2178 108.836 39.2178C109.462 39.2178 109.756 39.4602 109.756 39.9166C109.756 40.3731 109.474 40.6073 108.836 40.6073ZM108.003 47.6114V41.3263L109.66 41.2536V47.6114H108.003Z" fill="#005DA0"/>
<path d="M111.99 47.6116V42.4858H111.182V41.2983H111.99V41.0155C111.99 40.0663 112.645 39.2827 114.159 39.2827C114.504 39.2824 114.848 39.3272 115.181 39.416L115.088 40.4621C114.889 40.4185 114.686 40.3968 114.482 40.3975C113.848 40.3975 113.606 40.6479 113.606 41.0559V41.2983H114.955V42.51H113.606V47.6116H111.99Z" fill="#005DA0"/>
<path d="M118.271 42.5101V45.7414C118.271 46.2302 118.522 46.4402 119.022 46.4402C119.192 46.4404 119.361 46.4159 119.523 46.3675L119.62 47.547C119.272 47.6706 118.904 47.7308 118.534 47.7247C117.269 47.7247 116.655 46.9936 116.655 45.794V42.5101H115.945V41.2983H116.728L116.999 39.8684L118.271 39.7553V41.2983H119.681V42.5101H118.271Z" fill="#005DA0"/>
<path d="M32.4495 21.9097L25.2233 16.4689L17.9769 11.032C17.858 10.9382 17.7216 10.8688 17.5757 10.8281C17.4297 10.7874 17.2772 10.7762 17.1268 10.795C16.9765 10.8138 16.8314 10.8622 16.7 10.9376C16.5685 11.013 16.4534 11.1137 16.3612 11.234V11.2582L9.99136 19.7406C9.81414 19.9871 9.73837 20.2922 9.77971 20.5929C9.82106 20.8936 9.97636 21.1669 10.2135 21.3563L14.5274 24.5877L20.3762 28.9824L24.6901 32.2138C24.8707 32.3485 25.087 32.4269 25.3119 32.4392C25.5368 32.4514 25.7604 32.3969 25.9544 32.2825C26.0973 32.2089 26.2216 32.104 26.318 31.9755L32.6878 23.4931C32.8644 23.2509 32.9385 22.9489 32.8938 22.6525C32.8492 22.3561 32.6896 22.0892 32.4495 21.9097V21.9097ZM17.5084 11.6783L21.8182 14.9097L24.7305 17.0949L27.6469 19.2963L31.9567 22.5277C32.0354 22.5851 32.0881 22.6713 32.1032 22.7675C32.1184 22.8637 32.0947 22.9619 32.0375 23.0407L30.9994 24.4787L26.12 20.811L20.8327 16.8405L15.9533 13.1728L16.9873 11.751C17.0474 11.6731 17.1356 11.6218 17.233 11.6082C17.3304 11.5946 17.4293 11.6198 17.5084 11.6783V11.6783ZM25.6636 31.5352C25.635 31.5708 25.5996 31.6003 25.5596 31.6222C25.5195 31.6441 25.4755 31.6579 25.4301 31.6628C25.3847 31.6676 25.3388 31.6635 25.295 31.6507C25.2512 31.6378 25.2104 31.6164 25.1749 31.5877V31.5877L20.8367 28.3321L15.0364 23.9738L10.6821 20.6979C10.6083 20.6376 10.5582 20.5532 10.5407 20.4596C10.5303 20.3729 10.5518 20.2853 10.6013 20.2132L11.7807 18.6379C11.7807 18.6379 13.1056 16.9778 14.2366 15.4469L19.116 19.1146L24.4155 23.0972L29.2626 26.7568C28.1235 28.2715 26.839 29.9518 26.839 29.9518L25.6636 31.5352Z" fill="#AEB1BC"/>
<path d="M33.7501 34.8716L44.6561 20.2738L45.7709 18.8035L45.8032 18.7591C45.8416 18.7101 45.8594 18.648 45.8526 18.5861C45.8458 18.5242 45.815 18.4674 45.7669 18.4279V18.4279L42.6769 16.1901C42.6249 16.1543 42.5608 16.1406 42.4987 16.1519C42.4366 16.1633 42.3816 16.1988 42.3456 16.2507L42.3133 16.2952L41.9094 16.8283L28.4143 34.8716H13.5661L8 53.2138H45.161L39.91 34.8716H33.7501ZM9.00981 52.4827L14.0952 35.6027H27.869L26.6815 37.1901L24.9729 39.5531L24.779 39.9005L24.5972 40.3044L24.4155 40.7649L24.2256 41.2496L24.0398 41.7787L23.858 42.2957L23.6884 42.8168L23.5188 43.3177L23.3693 43.8064L23.2279 44.2548L23.1027 44.6587L23.0098 44.9859L22.9371 45.2363L22.8806 45.3898C22.8686 45.4149 22.8552 45.4391 22.8402 45.4625C22.8038 45.511 22.5978 45.7008 22.4362 45.5756C22.2747 45.4504 22.2908 45.0263 22.307 44.8203C22.3595 44.1982 22.408 43.5721 22.4605 42.9461C22.4605 42.9088 22.453 42.8718 22.4385 42.8375C22.424 42.8031 22.4027 42.7721 22.376 42.7461C22.3493 42.7201 22.3176 42.6997 22.2828 42.6862C22.2481 42.6727 22.211 42.6663 22.1737 42.6673C22.1255 42.667 22.0781 42.6796 22.0364 42.7037C21.3798 43.0924 20.8259 43.6325 20.4207 44.279C20.457 44.1376 20.4974 43.9963 20.5338 43.8751C20.7443 43.2273 20.917 42.5678 21.0508 41.8999C21.1033 41.5242 21.0104 41.092 20.5661 41.0032C20.1218 40.9143 19.7582 41.4394 19.5038 41.7868C18.7605 42.8208 18.292 44.1457 17.3953 45.0424C17.2562 45.2239 17.0685 45.3622 16.8541 45.4416C16.6397 45.5209 16.4072 45.538 16.1835 45.4908C15.6099 45.3292 15.3756 46.0038 16.3976 46.0967C17.4195 46.1896 18.1304 45.1353 18.5828 44.4002C18.914 43.867 19.2008 43.3096 19.5199 42.7845C19.6734 42.526 19.8309 42.2675 20.0087 42.0251C20.0854 41.9201 20.2268 41.6212 20.3641 41.6212C20.5014 41.6212 20.4934 41.6737 20.4853 41.8151C20.4331 42.1341 20.352 42.4478 20.2429 42.7522L19.9723 43.6974C19.7784 44.4083 19.5859 45.1178 19.3947 45.826C19.3793 45.891 19.3873 45.9593 19.4174 46.0188C19.4475 46.0784 19.4977 46.1254 19.5592 46.1515C19.6206 46.1776 19.6893 46.1812 19.753 46.1615C19.8168 46.1419 19.8716 46.1003 19.9077 46.0441C20.6186 45.0343 20.97 44.178 21.8425 43.5035C21.8425 43.7256 21.8061 43.9478 21.79 44.1699C21.7361 44.5418 21.7105 44.9171 21.7132 45.2928C21.7576 45.8907 22.21 46.3067 22.7796 46.0441C22.9662 45.9554 23.1379 45.8382 23.2885 45.6968L23.3249 45.6725L23.442 45.5837L23.6642 45.4383L23.959 45.2323L24.2902 44.9859L24.6578 44.7274L25.086 44.4244L25.5222 44.1013L25.9585 43.7822L26.3947 43.459L26.8229 43.1359L27.2268 42.837L27.5943 42.534L27.9175 42.2836L28.172 42.0453L28.3739 41.8555L29.7311 40.2398L33.2048 35.5987H39.3606L44.1552 52.4787L9.00981 52.4827Z" fill="#005DA0"/>
<path d="M47.1805 19.4864L46.7766 19.1794C46.7374 19.1502 46.6883 19.1377 46.6399 19.1445C46.5915 19.1513 46.5478 19.1769 46.5181 19.2157L41.3236 26.1269C41.2943 26.1667 41.2816 26.2165 41.2884 26.2655C41.2952 26.3146 41.3209 26.359 41.36 26.3894L41.7639 26.6964C41.8031 26.7256 41.8523 26.7381 41.9006 26.7313C41.949 26.7245 41.9928 26.6989 42.0224 26.6601L47.2129 19.753C47.2436 19.7146 47.2583 19.6658 47.2537 19.6168C47.2492 19.5678 47.2259 19.5225 47.1886 19.4904L47.1805 19.4864Z" fill="#005DA0"/>
<path d="M26.3381 48.8919H36.6624L36.4443 48.0719H26.3381H16.2319L16.0138 48.8919H26.3381Z" fill="#005DA0"/>
</svg>

<svg xmlns="http://www.w3.org/2000/svg" width="128" height="64" fill="none"><rect width="128" height="64" fill="#fff" rx="6"/><path fill="#005DA0" d="M66.424 35.397a11.007 11.007 0 0 1-5.252-1.256l.497-3.26a9.81 9.81 0 0 0 4.674 1.236c1.842 0 2.653-.675 2.653-1.842 0-2.654-7.755-1.53-7.755-7.17 0-2.855 1.842-5.17 6.112-5.17a13.039 13.039 0 0 1 4.725.877l-.472 3.19a13.672 13.672 0 0 0-4.068-.718c-2.088 0-2.653.719-2.653 1.615 0 2.626 7.755 1.414 7.755 7.122.012 3.332-2.302 5.376-6.216 5.376ZM87.266 31.782v3.304H75.803v-16.86h11.463v3.349h-7.675v3.352h6.22v3.01H79.6v3.845h7.667ZM96.665 29.584h-2.25v5.502h-3.797v-16.86h6.06c4.673 0 6.583 1.846 6.583 5.776-.012 3.563-1.898 5.582-6.596 5.582Zm0-8.203h-2.25v5.17h2.25c1.866 0 2.674-.473 2.674-2.585 0-2.02-.719-2.57-2.674-2.57v-.015ZM114.83 31.802h-6.116l-.941 3.284h-4.003l5.821-16.86h4.52L120 35.086h-4.225l-.945-3.284Zm-3.506-8.947-1.681 5.78h4.29l-1.616-5.78-.456-1.753h-.065l-.472 1.753ZM66.27 46.024l-.044 1.587h-4.957v-7.828h1.774v6.241h3.227ZM71.008 47.005h-.032a2.178 2.178 0 0 1-1.725.711c-1.212 0-1.959-.678-1.959-2.1 0-1.167.808-1.971 2.254-1.971.41-.004.82.056 1.212.178v-.368c0-.634-.332-.929-1.212-.929a4.104 4.104 0 0 0-1.741.347l-.137-1.296a5.566 5.566 0 0 1 2.173-.404c1.866 0 2.516.808 2.516 2.536v3.914h-1.244l-.105-.617Zm-.242-2.108a2.508 2.508 0 0 0-.897-.137c-.719 0-1.054.282-1.054.836 0 .618.367.836.9.836.534 0 1.05-.335 1.05-.743v-.792ZM75.871 47.737a4.12 4.12 0 0 1-1.983-.44l.17-1.333c.557.29 1.176.444 1.805.448.647 0 .917-.263.917-.638 0-1.014-2.932-.428-2.932-2.642 0-1.135.771-1.951 2.399-1.951a4.82 4.82 0 0 1 1.797.343l-.137 1.325a4.917 4.917 0 0 0-1.688-.323c-.533 0-.828.21-.828.533 0 .962 2.892.404 2.892 2.57 0 1.26-.7 2.108-2.412 2.108ZM81.466 42.51v3.231c0 .49.25.7.755.7.17 0 .338-.025.5-.074l.094 1.18a3.099 3.099 0 0 1-1.087.178c-1.264 0-1.878-.731-1.878-1.931V42.51h-.711v-1.212h.784l.27-1.43 1.273-.113v1.543h1.41v1.212h-1.41ZM86.01 47.737a4.12 4.12 0 0 1-1.984-.44l.166-1.333c.558.29 1.177.444 1.806.448.646 0 .916-.263.916-.638 0-1.014-2.932-.428-2.932-2.642 0-1.135.772-1.951 2.403-1.951.615 0 1.223.116 1.794.343l-.133 1.325a4.954 4.954 0 0 0-1.693-.323c-.533 0-.808.21-.808.533 0 .962 2.892.404 2.892 2.57-.02 1.26-.719 2.108-2.427 2.108ZM93.91 42.829a3.35 3.35 0 0 0-1.074-.198c-1.18 0-1.567.493-1.567 1.826 0 1.333.553 1.89 1.535 1.89.395.003.787-.08 1.147-.242l.113 1.264a3.127 3.127 0 0 1-1.616.368c-1.866 0-2.86-1.067-2.86-3.28 0-2.096.869-3.276 2.893-3.276.52 0 1.035.092 1.522.27l-.093 1.378ZM99.242 47.611v-4.039a.876.876 0 0 0-.751-.985.925.925 0 0 0-.258 0 1.355 1.355 0 0 0-1.075.48v4.544h-1.616V39.49l1.616-.081v1.438l-.036.856h.032a2.423 2.423 0 0 1 1.575-.541c1.337 0 2.121.896 2.121 2.423v4.04l-1.608-.013ZM102.563 47.611v-6.285l1.296-.06.146 1.054h.028a1.902 1.902 0 0 1 1.733-1.139c.233-.003.466.028.69.093l-.105 1.616a2.31 2.31 0 0 0-.686-.105c-.848 0-1.475.614-1.475 1.668v3.175l-1.627-.017ZM108.836 40.607c-.627 0-.93-.177-.93-.69 0-.449.303-.7.93-.7.626 0 .92.243.92.7 0 .456-.282.69-.92.69Zm-.833 7.004v-6.285l1.657-.072v6.357h-1.657ZM111.99 47.612v-5.126h-.808v-1.188h.808v-.282c0-.95.655-1.733 2.169-1.733.345 0 .689.044 1.022.133l-.093 1.046a2.785 2.785 0 0 0-.606-.065c-.634 0-.876.25-.876.659v.242h1.349v1.212h-1.349v5.102h-1.616ZM118.271 42.51v3.231c0 .49.251.7.751.7.17 0 .339-.025.501-.074l.097 1.18a3.093 3.093 0 0 1-1.086.178c-1.265 0-1.879-.731-1.879-1.931V42.51h-.71v-1.212h.783l.271-1.43 1.272-.113v1.543h1.41v1.212h-1.41Z"/><path fill="#AEB1BC" d="m32.45 21.91-7.227-5.441-7.246-5.437a1.144 1.144 0 0 0-1.616.202v.024l-6.37 8.483a1.184 1.184 0 0 0 .223 1.615l4.313 3.232 5.85 4.394 4.313 3.232a1.145 1.145 0 0 0 1.264.069c.143-.074.268-.179.364-.308l6.37-8.482a1.139 1.139 0 0 0-.239-1.583ZM17.508 11.678l4.31 3.232 2.912 2.185 2.917 2.201 4.31 3.232a.367.367 0 0 1 .08.513L31 24.479 26.12 20.81l-5.287-3.97-4.88-3.668 1.034-1.422a.376.376 0 0 1 .521-.073Zm8.156 19.857a.347.347 0 0 1-.49.053l-4.337-3.256-5.8-4.358-4.355-3.276a.404.404 0 0 1-.141-.238.36.36 0 0 1 .06-.247l1.18-1.575s1.325-1.66 2.456-3.191l4.879 3.668 5.3 3.982 4.847 3.66c-1.14 1.514-2.424 3.195-2.424 3.195l-1.175 1.583Z"/><path fill="#005DA0" d="m33.75 34.872 10.906-14.598 1.115-1.47.032-.045a.238.238 0 0 0-.036-.331l-3.09-2.238a.239.239 0 0 0-.331.06l-.033.045-.404.533-13.495 18.044H13.566L8 53.214h37.161L39.91 34.872h-6.16ZM9.01 52.482l5.085-16.88H27.87l-1.188 1.588-1.708 2.363-.194.348-.182.403-.181.46-.19.486-.186.529-.182.517-.17.52-.17.502-.149.488-.141.449-.125.404-.093.327-.073.25-.056.154a.67.67 0 0 1-.04.072c-.037.049-.243.239-.405.114-.161-.126-.145-.55-.129-.756.053-.622.101-1.248.154-1.874a.28.28 0 0 0-.287-.279.271.271 0 0 0-.138.037 4.781 4.781 0 0 0-1.615 1.575c.036-.141.076-.283.113-.404.21-.648.383-1.307.517-1.975.052-.376-.04-.808-.485-.897-.444-.089-.808.436-1.062.784-.744 1.034-1.212 2.359-2.109 3.255a1.212 1.212 0 0 1-1.212.449c-.573-.162-.807.513.215.606 1.021.093 1.732-.962 2.185-1.697.331-.533.618-1.09.937-1.615.153-.259.31-.517.489-.76.076-.105.218-.404.355-.404.137 0 .13.053.121.194a5.327 5.327 0 0 1-.242.937l-.27.945c-.195.711-.387 1.42-.578 2.129a.283.283 0 0 0 .513.218c.71-1.01 1.062-1.866 1.934-2.54 0 .222-.036.444-.052.666-.054.372-.08.747-.077 1.123.045.598.497 1.014 1.067.751.186-.089.358-.206.508-.347l.037-.025.117-.088.222-.146.295-.206.331-.246.368-.259.428-.303.436-.323.437-.319.436-.323.428-.323.404-.299.367-.303.323-.25.255-.239.202-.19 1.357-1.615 3.474-4.641h6.156l4.794 16.88-35.145.004Z"/><path fill="#005DA0" d="m47.18 19.486-.403-.307a.186.186 0 0 0-.259.037l-5.194 6.91a.19.19 0 0 0 .036.263l.404.307a.186.186 0 0 0 .258-.036l5.19-6.907a.19.19 0 0 0-.023-.263l-.008-.004ZM26.338 48.892h10.324l-.218-.82H16.232l-.218.82h10.324Z"/></svg>
